public/footer/vkontakte.svg

<svg width="52" height="52" viewBox="0 0 52 52" fill="none" xmlns="http://www.w3.org/2000/svg">
<g clip-path="url(#clip0_2_2)">
<path d="M33.72 0H17.89C3.44 0 0 3.44 0 17.87V33.69C0 48.14 3.41 51.58 17.87 51.58H33.69C48.14 51.58 51.58 48.17 51.58 33.72V17.89C51.58 3.44 48.17 0 33.72 0ZM41.64 36.81H37.88C36.46 36.81 36.03 35.65 33.48 33.1C31.24 30.95 30.31 30.68 29.74 30.68C28.96 30.68 28.74 30.9 28.74 31.97V35.36C28.74 36.27 28.44 36.81 26.05 36.81C22.05 36.81 17.7 34.39 14.58 29.93C9.91 23.4 8.65 18.46 8.65 17.46C8.65 16.9 8.87 16.39 9.94 16.39H13.7C14.7 16.39 15.02 16.82 15.39 17.81C17.22 23.19 20.33 27.86 21.59 27.86C22.08 27.86 22.29 27.65 22.29 26.44V20.9C22.14 18.38 20.79 18.16 20.79 17.25C20.8104 17.0041 20.9268 16.7761 21.1139 16.6152C21.3009 16.4543 21.5438 16.3734 21.79 16.39H27.7C28.51 16.39 28.78 16.79 28.78 17.76V25.23C28.78 26.03 29.13 26.3 29.37 26.3C29.85 26.3 30.23 26.03 31.11 25.15C33.0201 22.8281 34.5769 20.2368 35.73 17.46C35.8506 17.1281 36.0757 16.8443 36.3714 16.6513C36.6672 16.4583 37.0176 16.3666 37.37 16.39H41.14C42.26 16.39 42.51 16.95 42.26 17.76C41.81 19.96 37.26 26.41 37.26 26.44C36.86 27.05 36.7 27.38 37.26 28.1C37.64 28.67 38.96 29.77 39.84 30.82C41.1306 32.1031 42.2015 33.5896 43.01 35.22C43.25 36.27 42.72 36.81 41.64 36.81Z" fill="#303030"/>
</g>
<defs>
<clipPath id="clip0_2_2">
<rect width="51.58" height="51.58" fill="white"/>
</clipPath>
</defs>
</svg>

<svg xmlns="http://www.w3.org/2000/svg" viewBox="0 0 51.58 51.58"><defs><style>.a{fill:#fff;}</style></defs><title>vkontakte</title><path class="a" d="M33.72,0H17.89C3.44,0,0,3.44,0,17.87V33.69C0,48.14,3.41,51.58,17.87,51.58H33.69c14.45,0,17.89-3.41,17.89-17.86V17.89C51.58,3.44,48.17,0,33.72,0Zm7.92,36.81H37.88c-1.42,0-1.85-1.16-4.4-3.71-2.24-2.15-3.17-2.42-3.74-2.42-.78,0-1,.22-1,1.29v3.39c0,.91-.3,1.45-2.69,1.45-4,0-8.35-2.42-11.47-6.88C9.91,23.4,8.65,18.46,8.65,17.46c0-.56.22-1.07,1.29-1.07H13.7c1,0,1.32.43,1.69,1.42,1.83,5.38,4.94,10.05,6.2,10.05.49,0,.7-.21.7-1.42V20.9c-.15-2.52-1.5-2.74-1.5-3.65a.94.94,0,0,1,1-.86h5.91c.81,0,1.08.4,1.08,1.37v7.47c0,.8.35,1.07.59,1.07.48,0,.86-.27,1.74-1.15a30.54,30.54,0,0,0,4.62-7.69,1.63,1.63,0,0,1,1.64-1.07h3.77c1.12,0,1.37.56,1.12,1.37-.45,2.2-5,8.65-5,8.68-.4.61-.56.94,0,1.66.38.57,1.7,1.67,2.58,2.72a16.61,16.61,0,0,1,3.17,4.4C43.25,36.27,42.72,36.81,41.64,36.81Z"/></svg>
